modules/page_description/images/icon.svg

<svg id="svg2" height="24" viewBox="0 0 48 24" width="48" xmlns="http://www.w3.org/2000/svg"><defs id="defs4"><linearGradient id="linear-gradient" gradientUnits="userSpaceOnUse" x1="1.19" x2="20.81" y1="1.19" y2="20.81"><stop id="stop3506" offset="0" stop-color="#f9ad29"/><stop id="stop3508" offset="1" stop-color="#f33432"/></linearGradient></defs><g id="layer1" transform="translate(0 -1028.3622)"><g id="g3995" transform="translate(24 1028.3622)"><path id="path3968" clip-rule="evenodd" d="m24 16c0-3.5-3-6.4-6-6.9v-3.1-1-.6c-1-1.3-2-2.1-3.3-3.4h-.6-1-11.1v23h16v-1.1c3-.5 6-3.4 6-6.9z" fill="#939393" fill-rule="evenodd"/><path id="path3970" d="m16 23h-16v-23h12.6c1.4 1.3 2.4 2.1 3.4 3.4z" fill="#e74c3c"/><path id="path3972" d="m15 22h-14v-21h11c1.2 1.2 2 1.8 3 3z" fill="#fff"/><path id="rect3974" d="m11 0h1v5h-1z" fill="#e74c3c"/><path id="rect3976" d="m11 4h5v1h-5z" fill="#e74c3c"/><circle id="circle3978" clip-rule="evenodd" cx="15" cy="15" fill="#e74c3c" fill-rule="evenodd" r="8"/><circle id="circle3980" clip-rule="evenodd" cx="15" cy="15" fill="#fff" fill-rule="evenodd" r="7"/><path id="path3984" d="m13.5 19.1c0-.9.6-1.5 1.5-1.5.9 0 1.4.6 1.4 1.5 0 .8-.6 1.5-1.4 1.5-.9 0-1.5-.7-1.5-1.5zm.6-2.3l-.4-7.4h2.6l-.4 7.4z" fill="#e74c3c"/><path id="rect3986" d="m1.9 2.3h7.9000001v4.6999998h-7.9000001z" fill="#e74c3c"/></g><g id="g4037" transform="translate(0 1028.3622)"><path id="path4010" clip-rule="evenodd" d="m24 16c0-3.5-3-6.4-6-6.9v-3.1-1-.6c-1-1.3-2-2.1-3.3-3.4h-.6-1-11.1v23h16v-1.1c3-.5 6-3.4 6-6.9z" fill="#939393" fill-rule="evenodd"/><path id="path4012" d="m16 23h-16v-23h12.6c1.4 1.3 2.4 2.1 3.4 3.4z" fill="#5a5a5a"/><path id="path4014" d="m15 22h-14v-21h11c1.2 1.2 2 1.8 3 3z" fill="#fff"/><path id="rect4016" d="m11 0h1v5h-1z" fill="#5a5a5a"/><path id="rect4018" d="m11 4h5v1h-5z" fill="#5a5a5a"/><circle id="ellipse4020" clip-rule="evenodd" cx="15" cy="15" fill="#5a5a5a" fill-rule="evenodd" r="8"/><circle id="ellipse4022" clip-rule="evenodd" cx="15" cy="15" fill="#fff" fill-rule="evenodd" r="7"/><path id="path4026" d="m13.5 19.1c0-.9.6-1.5 1.5-1.5.9 0 1.4.6 1.4 1.5 0 .8-.6 1.5-1.4 1.5-.9 0-1.5-.7-1.5-1.5zm.6-2.3l-.4-7.4h2.6l-.4 7.4z" fill="#5a5a5a"/><path id="rect4028" d="m1.9 2.3h7.9000001v4.6999998h-7.9000001z" fill="#5a5a5a"/></g></g></svg>

<?xml version="1.0" encoding="UTF-8" standalone="no"?>
<svg
   xmlns:dc="http://purl.org/dc/elements/1.1/"
   xmlns:cc="http://creativecommons.org/ns#"
   xmlns:rdf="http://www.w3.org/1999/02/22-rdf-syntax-ns#"
   xmlns:svg="http://www.w3.org/2000/svg"
   xmlns="http://www.w3.org/2000/svg"
   version="1.1"
   id="svg2"
   viewBox="0 0 48 24"
   height="24"
   width="48">
  <defs
     id="defs4">
    <style
       id="style3462">.cls-1{fill:#939393;}.cls-2{fill:#d6d6d6;}.cls-3{fill:#5a5a5a;}</style>
    <style
       id="style3503">.cls-1{fill:#939393;}.cls-2{fill:url(#linear-gradient);}.cls-3{fill:#fff;}</style>
    <linearGradient
       id="linear-gradient"
       x1="1.19"
       y1="1.19"
       x2="20.81"
       y2="20.81"
       gradientUnits="userSpaceOnUse">
      <stop
         offset="0"
         stop-color="#f9ad29"
         id="stop3506" />
      <stop
         offset="1"
         stop-color="#f33432"
         id="stop3508" />
    </linearGradient>
    <style
       id="style3653">.cls-1{fill:#ac382e;}.cls-2{fill:#e74c3c;}</style>
    <style
       id="style3682">.cls-1{fill:#5a5a5a;}</style>
    <style
       id="style3815">.cls-1{fill:#ac382e;}.cls-2{fill:#e74c3c;}</style>
    <style
       id="style3844">.cls-1{fill:#5a5a5a;}</style>
  </defs>
  <metadata
     id="metadata7">
    <rdf:RDF>
      <cc:Work
         rdf:about="">
        <dc:format>image/svg+xml</dc:format>
        <dc:type
           rdf:resource="http://purl.org/dc/dcmitype/StillImage" />
        <dc:title></dc:title>
      </cc:Work>
    </rdf:RDF>
  </metadata>
  <g
     transform="translate(0,-1028.3622)"
     id="layer1">
    <g
       transform="translate(24,1028.3622)"
       id="g3995">
      <path
         style="clip-rule:evenodd;fill:#939393;fill-rule:evenodd"
         class="st0"
         d="M 24,16 C 24,12.5 21,9.6 18,9.1 L 18,6 18,5 18,4.4 C 17,3.1 16,2.3 14.7,1 l -0.6,0 -1,0 -11.1,0 0,23 16,0 0,-1.1 c 3,-0.5 6,-3.4 6,-6.9 z"
         id="path3968" />
      <path
         style="fill:#e74c3c"
         class="st1"
         d="M 16,23 0,23 0,0 12.6,0 C 14,1.3 15,2.1 16,3.4 L 16,23 Z"
         id="path3970" />
      <path
         style="fill:#ffffff"
         class="st2"
         d="M 15,22 1,22 1,1 12,1 c 1.2,1.2 2,1.8 3,3 l 0,18 z"
         id="path3972" />
      <rect
         style="fill:#e74c3c"
         y="0"
         x="11"
         class="st1"
         width="1"
         height="5"
         id="rect3974" />
      <rect
         style="fill:#e74c3c"
         x="11"
         y="4"
         class="st1"
         width="5"
         height="1"
         id="rect3976" />
      <circle
         style="clip-rule:evenodd;fill:#e74c3c;fill-rule:evenodd"
         class="st3"
         cx="15"
         cy="15"
         r="8"
         id="circle3978" />
      <circle
         style="clip-rule:evenodd;fill:#ffffff;fill-rule:evenodd"
         class="st4"
         cx="15"
         cy="15"
         r="7"
         id="circle3980" />
      <g
         id="g3982">
        <path
           style="fill:#e74c3c"
           class="st1"
           d="m 13.5,19.1 c 0,-0.9 0.6,-1.5 1.5,-1.5 0.9,0 1.4,0.6 1.4,1.5 0,0.8 -0.6,1.5 -1.4,1.5 -0.9,0 -1.5,-0.7 -1.5,-1.5 z m 0.6,-2.3 -0.4,-7.4 2.6,0 -0.4,7.4 -1.8,0 z"
           id="path3984" />
      </g>
      <rect
         style="fill:#e74c3c"
         x="1.9"
         y="2.3"
         class="st1"
         width="7.9000001"
         height="4.6999998"
         id="rect3986" />
    </g>
    <g
       transform="translate(0,1028.3622)"
       id="g4037">
      <path
         style="clip-rule:evenodd;fill:#939393;fill-rule:evenodd"
         class="st0"
         d="M 24,16 C 24,12.5 21,9.6 18,9.1 L 18,6 18,5 18,4.4 C 17,3.1 16,2.3 14.7,1 l -0.6,0 -1,0 -11.1,0 0,23 16,0 0,-1.1 c 3,-0.5 6,-3.4 6,-6.9 z"
         id="path4010" />
      <path
         style="fill:#5a5a5a"
         class="st1"
         d="M 16,23 0,23 0,0 12.6,0 C 14,1.3 15,2.1 16,3.4 L 16,23 Z"
         id="path4012" />
      <path
         style="fill:#ffffff"
         class="st2"
         d="M 15,22 1,22 1,1 12,1 c 1.2,1.2 2,1.8 3,3 l 0,18 z"
         id="path4014" />
      <rect
         style="fill:#5a5a5a"
         y="0"
         x="11"
         class="st1"
         width="1"
         height="5"
         id="rect4016" />
      <rect
         style="fill:#5a5a5a"
         x="11"
         y="4"
         class="st1"
         width="5"
         height="1"
         id="rect4018" />
      <circle
         style="clip-rule:evenodd;fill:#5a5a5a;fill-rule:evenodd"
         r="8"
         class="st3"
         cx="15"
         cy="15"
         id="ellipse4020" />
      <circle
         style="clip-rule:evenodd;fill:#ffffff;fill-rule:evenodd"
         r="7"
         class="st4"
         cx="15"
         cy="15"
         id="ellipse4022" />
      <g
         id="g4024">
        <path
           style="fill:#5a5a5a"
           class="st1"
           d="m 13.5,19.1 c 0,-0.9 0.6,-1.5 1.5,-1.5 0.9,0 1.4,0.6 1.4,1.5 0,0.8 -0.6,1.5 -1.4,1.5 -0.9,0 -1.5,-0.7 -1.5,-1.5 z m 0.6,-2.3 -0.4,-7.4 2.6,0 -0.4,7.4 -1.8,0 z"
           id="path4026" />
      </g>
      <rect
         style="fill:#5a5a5a"
         x="1.9"
         y="2.3"
         class="st1"
         width="7.9000001"
         height="4.6999998"
         id="rect4028" />
    </g>
  </g>
  <style
     type="text/css"
     id="style3966">
	.st0{fill-rule:evenodd;clip-rule:evenodd;fill:#939393;}
	.st1{fill:#E74C3C;}
	.st2{fill:#FFFFFF;}
	.st3{fill-rule:evenodd;clip-rule:evenodd;fill:#E74C3C;}
	.st4{fill-rule:evenodd;clip-rule:evenodd;fill:#FFFFFF;}
</style>
  <style
     type="text/css"
     id="style4008">
	.st0{fill-rule:evenodd;clip-rule:evenodd;fill:#939393;}
	.st1{fill:#5A5A5A;}
	.st2{fill:#FFFFFF;}
	.st3{fill-rule:evenodd;clip-rule:evenodd;fill:#5A5A5A;}
	.st4{fill-rule:evenodd;clip-rule:evenodd;fill:#FFFFFF;}
</style>
</svg>
